X:1
T:Title
%%score { ( 1 4 ) | ( 2 3 ) }
L:1/8
M:4/4
K:G
V:1 treble nm="Grand Piano"
V:4 treble 
V:2 treble 
V:3 treble 
V:1
 z4 z2[Q:1/4=100] GB | d3 e d2 B2 | [EG]2 [EA]2 [EG]2 G2 | [FA]2 [FA]2 [FA]2 [Bd]c |[M:3/4] B6 | %5
[M:1/4] GB |[M:4/4] d3 e d2 B2 | [EG]2 [EA]2 [EG]2 G2 | [FA]2 [Fc]2 [DB]AGF |[M:3/4] G6 | %10
[M:1/4] GA |[M:4/4] B2 B>B B[FA]Bc | d6 z2 | [Ge]2 z2 z4 |[M:3/4] FF [Ac]2 [GB]2 |[M:1/4] G>A | %16
[M:4/4] B2 B2 B>[FA] Bc | d2 d>c B2 B2 | [EA]2 [Ec]2 [FB]>[FA] GF |[M:3/4] G6 |] %20
V:2
 z4 z2 D2 | [G,B,G]3 [G,CG] [G,B,G]2 [G,DG]2 | [C,C]2 [C,C]2 [C,C]2 [E,B,]2 | %3
 [D,D]2 [D,D]2 [D,D]2 z[K:treble] A |[M:3/4] [G,DG]6 |[M:1/4] D-[G,D] | %6
[M:4/4] [G,B,G]3 [G,CG] [G,B,G]2 [G,DG]2 | [C,C]2 [C,C]2 [C,C]2 [E,B,]2 | [D,C]2 [D,A,]2 z CB,A, | %9
[M:3/4][K:treble] [G,B,D]6 |[M:1/4] [G,B,D][G,CD] | %11
[M:4/4] [G,DG]2 [G,DG]>[G,DG] [G,DG][D,D][G,DG][A,DF] | %12
 [B,DG]2 [B,D]>[A,C] [G,B,]2 [G,B,G]>[G,B,G] | %13
 .[C,C]2 [E,C]>[F,C][K:treble] [G,B,G][G,B,G] [G,DG]2 |[M:3/4][K:bass] [D,D][D,D] [D,D]2 [G,D]2 | %15
[M:1/4] [G,B,D]>[K:treble][G,CD] |[M:4/4] [G,DG]2 [G,DG]2 [G,DG]>[D,D] [G,DG][A,DF] | %17
 [B,DG]2 [B,DG]>[A,DF] [G,DG]2 [G,DG]2 | [C,C]2 [C,A,]2 [D,D]>[D,C] [D,B,D][D,A,D] | %19
[M:3/4] [G,B,D]6 |] %20
V:3
 z4 z2 [G,B,]G, | x8 | x8 | z4 z2 [D,D]2[K:treble] |[M:3/4] x6 |[M:1/4] [G,B,] z |[M:4/4] x8 | x8 | %8
 z4 D,2 [D,D]2 |[M:3/4][K:treble] x6 |[M:1/4] x2 |[M:4/4] x8 | x8 | x4[K:treble] x4 | %14
[M:3/4][K:bass] x6 |[M:1/4] x3/2[K:treble] x/ |[M:4/4] x8 | x8 | x8 |[M:3/4] x6 |] %20
V:4
 x8 | x8 | x8 | x8 |[M:3/4] x6 |[M:1/4] x2 |[M:4/4] x8 | x8 | z4 F2 z2 |[M:3/4] x6 |[M:1/4] x2 | %11
[M:4/4] x8 | z2 G>F G2 d>d | z D, [Ge]>[Ge] dd B2 |[M:3/4] A2 z2 z2 |[M:1/4] x2 |[M:4/4] x8 | x8 | %18
 x8 |[M:3/4] x6 |] %20

